!!!Melodie: eigene
!!!Typ: Lied
**kern	**silbe	**silbe	**silbe	**silbe	**silbe	**silbe	**silbe	**silbe
*clefG2	*lang:DE	*lang:DE	*lang:DE	*lang:DE	*lang:DE	*lang:DE	*lang:DE	*lang:DE
*k[f#]	*	*	*	*	*	*	*	*
*M4/4	*	*	*	*	*	*	*	*
*met(c)	*	*	*	*	*	*	*	*
4b	Wun#	Dei#	Him#	Gro#	O	Was	Hal#	Hal#
4b	#der#	#ne	#mel,	#ßes	du	den	#le#	#le#
4b	#ba#	Va#	lo#	Licht	mei#	A#	#lu#	#lu#
4b	#rer	#ters	#be	der	#ne	#tem	#ja	#ja
=	=	=	=	=	=	=	=	=
2a	Kö#	Gü#	präch#	Son#	See#	ho#	bring#	sing#
2;a	#nig,	#te	#tig	#nen	#le,	#let,	#e,	#e,
=	=	=	=	=	=	=	=	=
4g	Herr#	hast	dei#	schie#	sing#	jauch#	wer	wel#
4g	#scher	du	#nes	#ße	#e	#ze,	den	#cher
4g	von	las#	Schöp#	dei#	fröh#	prei#	Her#	Chris#
4g	uns	#sen	#fers	#ne	#lich,	#se,	#ren	#tum
=	=	=	=	=	=	=	=	=
2f#	al#	trie#	Ta#	Strah#	sing#	kling#	ken#	nen#
2;f#	#len,	#fen,	#ten,	#len,	#e,	#e,	#net,	#net,
=	=	=	=	=	=	=	=	=
4e	lass	ob	mehr	die	sing#	wirf	wer	sich
4e	dir	wir	als	das	#e	dich	den	von
4d	un#	schon	al#	gro#	dei#	in	Her#	Her#
4g	#ser	von	#ler	#ße	#ne	den	#ren	#zen
=	=	=	=	=	=	=	=	=
4a	Lob	dir	Men#	Rund	Glau#	Staub	Je#	ihm
8Lb	ge#	weg#	#schen	be#	#bens#	dar#	#sum	er#
8Jcc	|	|	|	|	|	|	|	|
(4b	#fal#	#lie#	Staa#	#ma#	#lie#	#nie#	lie#	#gie#
4a)	|	|	|	|	|	|	|	|
=	=	=	=	=	=	=	=	=
1;g	#len:	#fen.	#ten;	#len;	#der!	#der,	#bet!	#bet!
=:|	=	=	=	=	=	=	=	=
4b	.	Hilf	.	lo#	.	er	.	O
4b	.	uns	.	#bet	.	ist	.	wohl
2;cc	.	noch,	.	gern	.	Gott	.	dir!
=	=	=	=	=	=	=	=	=
4a	.	stärk	.	Mond	.	Ze#	.	Glau#
4a	.	uns	.	und	.	#ba#	.	#be
2;b	.	doch,	.	Stern,	.	#oth,	.	mir,
=	=	=	=	=	=	=	=	=
4dd	.	lass	.	seid	.	er	.	end#
4dd	.	die	.	be#	.	ist	.	#lich
4cc	.	Zun#	.	#reit	.	nur	.	wirst
4b	.	#ge	.	zu	.	zu	.	du
=	=	=	=	=	=	=	=	=
8La	.	sin#	.	eh#	.	lo#	.	dro#
8b	.	|	.	|	.	|	.	|
8cc	.	|	.	|	.	|	.	|
8Jdd	.	|	.	|	.	|	.	|
2;b	.	#gen,	.	#ren	.	#ben	.	#ben
=	=	=	=	=	=	=	=	=
4dd	.	lass	.	ei#	.	hie	.	oh#
4dd	.	die	.	#nen	.	und	.	#ne
4cc	.	Stim#	.	sol#	.	e#	.	Sünd’
4b	.	#me	.	#chen	.	#wig	.	ihn
=	=	=	=	=	=	=	=	=
8La	.	klin#	.	Her#	.	dro#	.	lo#
8b	.	|	.	|	.	|	.	|
8cc	.	|	.	|	.	|	.	|
8Jdd	.	|	.	|	.	|	.	|
2;b	.	#gen.	.	#ren.	.	#ben.	.	#ben.
==	==	==	==	==	==	==	==	==
*-	*-	*-	*-	*-	*-	*-	*-	*-
